X:1
T:Donum Dei, 76.76
T:Donum Dei, 76.76
T:Latham True, 1911
T:Public Domain Courtesy of the Cyber Hymnal™
C:Latham True, 1911
Z:Public Domain
Z:Courtesy of the Cyber Hymnal™
%%score ( 1 2 ) ( 3 4 )
L:1/8
Q:1/4=110
M:4/4
K:Eb
V:1 treble 
V:2 treble 
V:3 bass 
V:4 bass 
V:1
 E2 | [EG]3 [EG] [E^F]2 [^CG]2 | [DA]4 [DG]2 [DF]2 | [EB]2 [Ee]2 [Fe]2 [Fd]2 | [Ec]6 [Dc]2 | %5
 B3 z B [Gc]2 G2 | ([GB]2 [FA]2) [EG]2 [CF]2 | [B,E]2 [_DG]2 [CA]2 [B,=D]2 | [B,E]6 |] %9
V:2
 E2 | x8 | x8 | x8 | x8 | F2 (E2 x G2) x2 | x8 | x8 | x6 |] %9
V:3
 [E,G,]2 | [E,B,]3 [E,B,] [E,=A,]2 [=E,B,]2 | [F,A,]4 B,2 [A,B,]2 | %3
 [G,B,]2 [G,B,]2 [G,=B,]2 [G,B,]2 | [A,C]6 [A,B,]2 | [G,B,]3 [G,B,] [=E,_D]2 [E,D]2 x | %6
 [F,C]4 [G,B,]2 A,2 | [B,,G,]2 [B,,=E,]2 [B,,F,]2 [B,,A,]2 | [E,G,]6 |] %9
V:4
 x2 | x8 | x4 B,2 x2 | x8 | x8 | x9 | x6 A,2 | x8 | x6 |] %9

